X:2
T:Ducks on the Millpond
M:2/4
L:1/8
S:Luther Davis (Galax)
Z: Contributed 2016-03-08 05:08:06 by Jim Gaskins  fiddleji@comcast.net
K:D
(f/a/a/)(b/ a)f/a/|a/b/a/f/ e/(d/d)|(f/a)(a/ f)d/B/|A/d/B/d/ e/(d/d)|
(f/a/a/)(b/ a)f/a/|a/b/a/f/ ed|f/(a/a/)a/ fd/d/|A/B/B/d/ e/(d/d)||
dd f/f/e/f/|d/e/f/f/ e/(d/B/)d/|dd/d/ f/f/e/d/|B/A/B/d/ e/(d/d)||
dd f/f/e/(d/|d)f/f/ e/(d/B/d/)|dd f/f/e/(d/|B/A/)B/d/ e/(d/d||



